X:790
T: Two Birds in the Tree
T: Dh\'a \'Ean ar an gCrann
S: B.Breathnach: "Ceol Rince na hEireann" II/232
Z: B.Black
L: 1/8
M: 4/4
R: reel
K: G
(3EFG|A2 BA eAAA|(3Bcd AB GBAG|EAAA BAGA|(3BAB Bd gedB|
A2 BA eAAA|(3Bcd AB GBAG|EAAA BAGA|(3BAB dB A2 :|
dc|(3BAG Bd g2 ga|(3bag (3agf gedc|(3BAG Bd gfga|\
(3bag (3agf g2 ga|
bagb agef|gedB AE E2|GABd (3edB ed|dBAB G2 :|
